X: 330
T:Irish Whiskey
% Nottingham Music Database
S:Trad, arr Phil Rowe
M:6/8
K:G
B|"G"G3 "C"g2e|"G"dBG "D"AFD|"G"G3 "C"g2e|"G"dBG "D"A2B|
"G"G3 "C"g2e|"G"dBG GAB|"C"cde "G"dcB|"D7"cBA "G"G2::
B|"Em"eBe gbg|eBe gbg|"Em"eBe "Bm"g2a|"Em"bag "D"agf|
eBe gbg|"Em"eBe "Bm"g2a|"Em"bag "D"agf| [1"Em"e3 -e2:|[2"Em"e3 "D7"d2||<end>
<start>
